X:1
T:Title
%%score { 1 | ( 2 3 ) }
L:1/8
M:4/4
K:G
V:1 treble nm="Grand Piano"
V:2 treble 
V:3 treble 
V:1
 z4 z2[Q:1/4=108] Bc | d3 B AG [EG]>E | D6 GB | [FA]3 [FA] [FA][FA]G[FA] |[M:3/4] B6 |[M:1/4] Bc | %6
[M:4/4] d3 e dB[DA][DG] | [CE]6 [Ge][Ge] | [Gd] [Gd]3 [GB]2 [FA]2 |[M:3/4] G6 |[M:1/4] dc | %11
[M:4/4] A<A F>F F2 ed | B<B G>G G2 Bc | dGGG G2 FG |[M:9/8] [FA]2 [Fd]- [Fd]/[Fd]/ [Fd]2- [Fd]BA | %15
[M:4/4] G<G D>D D2 AG | E<E E>E E2 [Ge][Ge] | %17
 [Gd]<[Gd] [B,G][CGA] [DGB]<[DGB] [CFA]>[CFA][Q:1/4=105][Q:1/4=101][Q:1/4=98][Q:1/4=95][Q:1/4=91][Q:1/4=88][Q:1/4=84] | %18
[M:3/4] [G,B,G]6 |] %19
V:2
 z4 z2 [G,G]2 | [G,B,G]3 [G,DG] [G,CD][K:bass][G,B,D] [C,C]>[C,G,C] | z4 z2[K:treble] .[B,D]2 | %3
 [D,D]3 [D,D] [D,D][D,D][D,B,][D,D] |[M:3/4][K:treble] [G,DG]6 |[M:1/4] [G,G]2 | %6
[M:4/4] [G,B,G]3 [G,CG] [G,B,G][G,G][K:bass][B,,G,][B,,G,] | [C,G,]6 [C,C][C,C] | %8
 [D,B,] [D,B,]3 [D,D]2 [D,C]2 |[M:3/4] [G,B,]6 |[M:1/4] z2 |[M:4/4] z2 [D,A,]>[D,A,] [D,A,]2 z2 | %12
 z2 [G,B,]>[G,B,] [G,B,]2[K:treble] [G,G][G,A,A] | %13
 [G,B,G][G,B,D][G,B,D][K:bass][G,B,D] [G,B,D]2 [A,CD][G,B,D] | %14
[M:9/8] [D,D]2 [D,A,]- [D,A,]/[D,A,]/ [D,A,]2- [D,A,] z z |[M:4/4] z2 [G,B,]>[G,B,] [G,B,]2 z2 | %16
 z2 [C,C]>[C,C] [C,C]2 [C,C][C,C] | [D,B,]<[D,B,] D,D, D,<D, D,>D, |[M:3/4] G,,6 |] %19
V:3
 z4 z2 z A, | x5[K:bass] x3 | [G,B,]6[K:treble] G,-[G,DG] | x8 |[M:3/4][K:treble] x6 | %5
[M:1/4] z A, |[M:4/4] x6[K:bass] x2 | x8 | x8 |[M:3/4] x6 |[M:1/4] x2 |[M:4/4] x8 | %12
 x6[K:treble] x2 | x3[K:bass] x5 |[M:9/8] x9 |[M:4/4] x8 | x8 | x8 |[M:3/4] x6 |] %19

